packages/katcn/src/icons/svg/mailAt-solid.svg

<svg width="24" height="24" viewBox="0 0 24 24" fill="none" xmlns="http://www.w3.org/2000/svg">
<path d="M22 11.1752C21.5835 6.26236 17.5855 2.34877 12.6712 2.0157C9.67263 1.84916 6.75737 3.01491 4.75833 5.17988C2.67601 7.34484 1.67649 10.3425 2.09296 13.2569C2.67601 17.6701 6.25761 21.3339 10.7554 21.9167C11.1719 22 11.5884 22 12.0048 22C13.754 22 15.5031 21.5837 17.0024 20.6677C17.8353 20.1681 18.0852 19.1689 17.5855 18.4195C17.0857 17.5868 16.0862 17.337 15.3366 17.8366C14.0872 18.586 12.5879 18.8358 11.1719 18.6693C8.17335 18.3362 5.75785 15.9214 5.42468 12.9238C5.1748 10.9254 5.84114 8.92693 7.17383 7.51138C8.50652 6.09582 10.5056 5.26314 12.5046 5.42968C15.753 5.59622 18.4184 8.26079 18.7516 11.5082C18.7516 12.0078 18.7516 12.4242 18.7516 12.9238C18.6683 13.2569 18.3351 13.5899 17.8353 13.5899C17.3356 13.5899 17.0024 13.1736 17.0024 12.7573V12.0078C17.0024 9.34327 14.8368 7.17831 12.1714 7.17831C9.50604 7.17831 7.17383 9.34327 7.17383 12.0078C7.17383 14.6724 9.33945 16.8374 12.0048 16.8374C13.1709 16.8374 14.1705 16.421 15.0034 15.8382C15.753 16.5043 16.6692 16.8374 17.6688 16.8374C17.6688 16.8374 17.7521 16.8374 17.8353 16.8374C19.9177 16.8374 21.6668 15.3386 22 13.2569C22 12.5907 22 11.9246 22 11.1752ZM12.0048 13.5067C11.1719 13.5067 10.5056 12.8405 10.5056 12.0078C10.5056 11.1752 11.1719 10.509 12.0048 10.509C12.8378 10.509 13.5041 11.1752 13.5041 12.0078C13.5041 12.8405 12.8378 13.5067 12.0048 13.5067Z" fill="black"/>
</svg>

<svg xmlns="http://www.w3.org/2000/svg" fill="none" viewBox="0 0 24 24"><path fill="#000" d="M22 11.175c-.416-4.913-4.414-8.826-9.329-9.16-2.998-.166-5.914 1-7.913 3.165-2.082 2.165-3.082 5.163-2.665 8.077.583 4.413 4.165 8.077 8.662 8.66.417.083.833.083 1.25.083 1.749 0 3.498-.416 4.997-1.332.833-.5 1.083-1.5.584-2.248-.5-.833-1.5-1.083-2.25-.583-1.249.749-2.748.999-4.164.832-2.999-.333-5.414-2.748-5.747-5.745A6.72 6.72 0 0 1 7.174 7.51c1.333-1.415 3.332-2.248 5.33-2.081 3.249.166 5.914 2.83 6.248 6.078v1.416c-.084.333-.417.666-.917.666a.835.835 0 0 1-.833-.833v-.75a4.834 4.834 0 0 0-4.83-4.829c-2.666 0-4.998 2.165-4.998 4.83a4.834 4.834 0 0 0 4.83 4.83c1.167 0 2.167-.417 3-1 .749.666 1.665 1 2.665 1h.166c2.083 0 3.832-1.5 4.165-3.581zm-9.995 2.332c-.833 0-1.5-.666-1.5-1.5 0-.832.667-1.498 1.5-1.498s1.5.666 1.5 1.499-.667 1.499-1.5 1.499"/></svg>
